school/img/country/VG.svg

<svg width="13" height="12" viewBox="0 0 13 12" fill="none" xmlns="http://www.w3.org/2000/svg">
<rect width="13" height="12" rx="2" fill="white"/>
<mask id="mask0" mask-type="alpha" maskUnits="userSpaceOnUse" x="0" y="0" width="13" height="12">
<rect width="13" height="12" rx="2" fill="white"/>
</mask>
<g mask="url(#mask0)">
<rect width="13" height="12" fill="#07319C"/>
<path fill-rule="evenodd" clip-rule="evenodd" d="M8.04761 6C8.04761 5.53231 8.04761 5.00386 8.04761 4.53306C8.04761 3.79668 8.64456 3.2 9.38094 3.2H9.80951C10.5459 3.2 11.1428 3.79668 11.1428 4.53306C11.1428 5.00386 11.1428 5.53231 11.1428 6C11.1428 8 9.59523 8.8 9.59523 8.8C9.59523 8.8 8.04761 8 8.04761 6Z" fill="#008339"/>
<mask id="mask1" mask-type="alpha" maskUnits="userSpaceOnUse" x="8" y="3" width="4" height="6">
<path fill-rule="evenodd" clip-rule="evenodd" d="M8.04761 6C8.04761 5.53231 8.04761 5.00386 8.04761 4.53306C8.04761 3.79668 8.64456 3.2 9.38094 3.2H9.80951C10.5459 3.2 11.1428 3.79668 11.1428 4.53306C11.1428 5.00386 11.1428 5.53231 11.1428 6C11.1428 8 9.59523 8.8 9.59523 8.8C9.59523 8.8 8.04761 8 8.04761 6Z" fill="white"/>
</mask>
<g mask="url(#mask1)">
<path fill-rule="evenodd" clip-rule="evenodd" d="M8.97615 4.8C9.1471 4.8 9.28568 4.62091 9.28568 4.4C9.28568 4.17909 9.1471 4 8.97615 4C8.8052 4 8.66663 4.17909 8.66663 4.4C8.66663 4.62091 8.8052 4.8 8.97615 4.8ZM8.97615 5.6C9.1471 5.6 9.28568 5.42091 9.28568 5.2C9.28568 4.97909 9.1471 4.8 8.97615 4.8C8.8052 4.8 8.66663 4.97909 8.66663 5.2C8.66663 5.42091 8.8052 5.6 8.97615 5.6ZM9.28568 6C9.28568 6.22092 9.1471 6.4 8.97615 6.4C9.1471 6.4 9.28568 6.57909 9.28568 6.8C9.28568 7.02091 9.1471 7.2 8.97615 7.2C8.8052 7.2 8.66663 7.02091 8.66663 6.8C8.66663 6.57916 8.80511 6.40012 8.97598 6.4C8.80511 6.39988 8.66663 6.22084 8.66663 6C8.66663 5.77909 8.8052 5.6 8.97615 5.6C9.1471 5.6 9.28568 5.77909 9.28568 6ZM10.5238 6.8C10.5238 7.02091 10.3852 7.2 10.2143 7.2C10.0433 7.2 9.90474 7.02091 9.90474 6.8C9.90474 6.57909 10.0433 6.4 10.2143 6.4C10.0433 6.4 9.90474 6.22092 9.90474 6C9.90474 5.77909 10.0433 5.6 10.2143 5.6C10.3852 5.6 10.5238 5.77909 10.5238 6C10.5238 6.22084 10.3853 6.39988 10.2144 6.4C10.3853 6.40012 10.5238 6.57916 10.5238 6.8ZM10.5238 5.2C10.5238 5.42091 10.3852 5.6 10.2143 5.6C10.0433 5.6 9.90474 5.42091 9.90474 5.2C9.90474 4.97929 10.0431 4.80034 10.2138 4.8" fill="#FFD033"/>
<path fill-rule="evenodd" clip-rule="evenodd" d="M9.59529 6.8C9.76624 6.8 9.90481 6.26274 9.90481 5.6C9.90481 4.93726 9.76624 4.4 9.59529 4.4C9.42435 4.4 9.28577 4.93726 9.28577 5.6C9.28577 6.26274 9.42435 6.8 9.59529 6.8Z" fill="white"/>
</g>
<path d="M7.73816 8C7.73816 8.76291 8.58372 9.2 9.5953 9.2C10.6069 9.2 11.4524 8.76291 11.4524 8C11.4524 7.77908 11.3139 7.6 11.1429 7.6C10.972 7.6 10.8334 7.77908 10.8334 8C10.8334 8.00765 10.7584 8.09934 10.5747 8.19429C10.3253 8.32319 9.97403 8.4 9.5953 8.4C9.21657 8.4 8.86528 8.32319 8.61592 8.19429C8.43223 8.09934 8.35721 8.00765 8.35721 8C8.35721 7.77908 8.21863 7.6 8.04768 7.6C7.87674 7.6 7.73816 7.77908 7.73816 8V8Z" fill="#FFD033"/>
<path d="M0 -0.333333H-0.75L-0.247423 0.223368L1.83333 2.5282V3.05406L-0.226093 4.95507L-0.333333 5.05406V5.2V5.6V6.29771L0.209446 5.85931L2.59399 3.93333H2.96491L5.00214 5.81385C5.08536 5.89067 5.19447 5.93333 5.30773 5.93333C5.69811 5.93333 5.90374 5.47067 5.64214 5.1809L3.7381 3.07179V2.54594L5.69028 0.743925C5.827 0.617721 5.90476 0.440121 5.90476 0.254056V0V-0.697712L5.36198 -0.259314L2.97744 1.66667H2.60652L0.535617 -0.244934L0.439852 -0.333333H0.309524H0Z" fill="#DB1E36" stroke="white" stroke-width="0.666667"/>
<path fill-rule="evenodd" clip-rule="evenodd" d="M0 2V3.6H2.16667V5.38095C2.16667 5.72284 2.44382 6 2.78571 6V6C3.1276 6 3.40476 5.72284 3.40476 5.38095V3.6H5.21429C5.58247 3.6 5.88095 3.30152 5.88095 2.93333V2.66667C5.88095 2.29848 5.58248 2 5.21429 2H3.40476V0H2.16667V2H0Z" fill="white"/>
<path fill-rule="evenodd" clip-rule="evenodd" d="M0 2.4H2.47619V2V0H3.09524V2V2.4H5.57143V3.2H3.09524V3.6V5.6H2.47619V3.6V3.2H0V2.4Z" fill="#DB1E36"/>
</g>
</svg>

<svg width="13" height="12" fill="none" xmlns="http://www.w3.org/2000/svg"><rect width="13" height="12" rx="2" fill="#fff"/><mask id="a" maskUnits="userSpaceOnUse" x="0" y="0" width="13" height="12"><rect width="13" height="12" rx="2" fill="#fff"/></mask><g mask="url(#a)"><path fill="#07319C" d="M0 0h13v12H0z"/><path fill-rule="evenodd" clip-rule="evenodd" d="M8.048 6V4.533c0-.736.597-1.333 1.333-1.333h.429c.736 0 1.333.597 1.333 1.333V6c0 2-1.548 2.8-1.548 2.8S8.048 8 8.048 6z" fill="#008339"/><mask id="b" maskUnits="userSpaceOnUse" x="8" y="3" width="4" height="6"><path fill-rule="evenodd" clip-rule="evenodd" d="M8.048 6V4.533c0-.736.597-1.333 1.333-1.333h.429c.736 0 1.333.597 1.333 1.333V6c0 2-1.548 2.8-1.548 2.8S8.048 8 8.048 6z" fill="#fff"/></mask><g mask="url(#b)" fill-rule="evenodd" clip-rule="evenodd"><path d="M8.976 4.8c.171 0 .31-.18.31-.4 0-.22-.139-.4-.31-.4-.17 0-.31.18-.31.4 0 .22.14.4.31.4zm0 .8c.171 0 .31-.18.31-.4 0-.22-.139-.4-.31-.4-.17 0-.31.18-.31.4 0 .22.14.4.31.4zm.31.4c0 .22-.139.4-.31.4.171 0 .31.18.31.4 0 .22-.139.4-.31.4-.17 0-.31-.18-.31-.4 0-.22.14-.4.31-.4-.17 0-.31-.18-.31-.4 0-.22.14-.4.31-.4.171 0 .31.18.31.4zm1.238.8c0 .22-.139.4-.31.4-.17 0-.31-.18-.31-.4 0-.22.14-.4.31-.4-.17 0-.31-.18-.31-.4 0-.22.14-.4.31-.4.171 0 .31.18.31.4 0 .22-.139.4-.31.4.171 0 .31.18.31.4zm0-1.6c0 .22-.139.4-.31.4-.17 0-.31-.18-.31-.4 0-.22.14-.4.31-.4" fill="#FFD033"/><path d="M9.595 6.8c.171 0 .31-.537.31-1.2 0-.663-.139-1.2-.31-1.2-.17 0-.31.537-.31 1.2 0 .663.14 1.2.31 1.2z" fill="#fff"/></g><path d="M7.738 8c0 .763.846 1.2 1.857 1.2 1.012 0 1.857-.437 1.857-1.2 0-.22-.138-.4-.31-.4-.17 0-.309.18-.309.4 0 .008-.075.1-.258.194-.25.13-.601.206-.98.206-.378 0-.73-.077-.98-.206-.183-.095-.258-.186-.258-.194 0-.22-.138-.4-.31-.4-.17 0-.309.18-.309.4z" fill="#FFD033"/><path d="M0-.333h-.75l.503.556 2.08 2.305v.526l-2.06 1.901-.106.1v1.242l.542-.439 2.385-1.926h.37l2.038 1.88a.45.45 0 00.64-.632L3.738 3.07v-.525L5.69.744a.667.667 0 00.215-.49v-.952l-.543.439-2.385 1.926h-.37L.536-.245.44-.333H0z" fill="#DB1E36" stroke="#fff" stroke-width=".667"/><path fill-rule="evenodd" clip-rule="evenodd" d="M0 2v1.6h2.167v1.781a.62.62 0 001.238 0V3.6h1.81a.667.667 0 00.666-.667v-.266A.667.667 0 005.214 2h-1.81V0H2.168v2H0z" fill="#fff"/><path fill-rule="evenodd" clip-rule="evenodd" d="M0 2.4h2.476V0h.62v2.4H5.57v.8H3.095v2.4h-.619V3.2H0v-.8z" fill="#DB1E36"/></g></svg>
